X: 183
T: 6. La Nonime
T: la Nonine
N: Is it "Nonime" or Nonine"?
B: Robert Landrin "Potpourri fran\,cois des contre-danse ancienne tel quil se danse chez la Reine ..." 1760 p.18 #3 dance 6 #6
S: http://memory.loc.gov/cgi-bin/query/D?musdibib:2:./temp/~ammem_EbRS:
Z: 2014 John Chambers <jc:trillian.mit.edu>
M: 6/8
L: 1/8
K: Gm
% - - - - - - - - - - - - - - - - - - - - - - - - -
!segno!G2A |\
BcB ABG | A2D G2A |\
BcB AG^F | HG3 |][|\
"4.f. enrondeau"B2c |\
ded cBA | B2F B2c |
ded cBA | B3 d2c |\
BAB c2B | AGA B2A |\
GFG AGA | D3 !segno!y |]
% - - - - - - - - - - - - - - - - - - - - - - - - -

%%sep 1 1 500
%%sep 1 1 500
